<?xml version="1.0" encoding="UTF-8"?>
<map version="1.10" tiledversion="2024.05.28" class="Map" orientation="orthogonal" renderorder="right-down" width="30" height="20" tilewidth="32" tileheight="32" infinite="0" nextlayerid="5" nextobjectid="19">
 <properties>
  <property name="name" value="Prison Floor"/>
 </properties>
 <tileset firstgid="1" source="tilesets/base.tsx"/>
 <tileset firstgid="3" source="tilesets/interior.tsx"/>
 <layer id="1" name="Kachelebene 1" width="30" height="20">
  <data encoding="csv">
0,0,0,0,0,0,0,0,0,0,0,0,0,0,0,0,0,0,0,0,0,0,0,0,0,0,0,0,0,0,
0,0,0,0,0,0,0,0,0,0,0,0,0,0,0,0,0,0,0,0,0,0,0,0,0,0,0,0,0,0,
0,0,0,0,0,0,0,0,0,0,0,0,0,0,0,0,0,0,0,0,0,0,0,0,0,0,0,0,0,0,
0,0,0,0,0,0,0,0,0,0,0,0,0,0,0,0,0,0,0,0,0,0,0,0,0,0,0,0,0,0,
0,0,0,0,0,0,0,0,0,0,0,0,0,0,0,0,0,0,0,0,0,0,0,0,0,0,0,0,0,0,
0,0,0,0,0,0,0,0,0,0,0,0,0,0,0,0,0,0,0,0,0,0,0,0,0,0,0,0,0,0,
0,0,0,0,0,0,0,0,0,0,0,0,0,0,0,0,0,0,0,0,0,0,0,0,0,0,0,0,0,0,
0,0,0,0,0,0,0,0,0,0,0,0,0,0,0,0,0,0,0,0,0,0,0,0,0,0,0,0,0,0,
0,0,0,0,0,0,0,0,0,0,0,0,0,0,0,0,0,0,0,0,0,0,0,0,0,0,0,0,0,0,
0,0,0,0,0,0,0,0,0,0,0,0,0,0,0,0,0,0,0,0,0,0,0,0,0,0,0,0,0,0,
0,0,0,0,0,0,0,0,0,0,0,0,0,0,0,0,0,0,0,0,0,0,0,0,0,0,0,0,0,0,
1,1,1,1,1,0,0,0,0,0,0,0,0,0,0,0,0,0,0,0,0,0,0,0,0,0,0,0,0,0,
1,1,1,1,1,0,0,0,0,0,0,0,0,0,0,0,0,0,0,0,0,0,0,0,0,0,0,0,0,0,
0,1,0,0,0,0,0,0,0,0,0,0,0,0,0,0,0,0,0,0,0,0,0,0,0,0,0,0,0,0,
1,1,1,1,1,1,1,1,0,0,0,0,0,0,0,0,0,0,0,0,0,0,0,0,0,0,0,0,0,0,
1,1,1,1,1,1,1,1,0,0,0,0,0,0,0,0,0,0,0,0,0,0,0,0,0,0,0,0,0,0,
0,0,1,0,0,0,0,0,0,0,0,0,0,0,0,0,0,0,0,0,0,0,0,0,0,0,0,0,0,0,
1,1,1,0,1,1,1,0,0,0,0,0,0,0,0,0,0,0,0,0,0,0,0,0,0,0,0,0,0,0,
1,1,1,0,1,1,1,0,0,0,0,0,0,0,0,0,0,0,0,0,0,0,0,0,0,0,0,0,0,0,
1,1,1,0,1,1,1,0,0,0,0,0,0,0,0,0,0,0,0,0,0,0,0,0,0,0,0,0,0,0
</data>
 </layer>
 <objectgroup id="2" name="Objektebene 1">
  <object id="17" name="cell" type="Depiction" x="0" y="544" width="96" height="96">
   <properties>
    <property name="story" value="/PrisonFloor/Cell/Cell"/>
   </properties>
  </object>
  <object id="1" name="Window" type="Depiction" x="0" y="608" width="64" height="32" visible="0">
   <properties>
    <property name="story" value="/PrisonFloor/Cell/Window"/>
   </properties>
  </object>
  <object id="3" name="Bed" type="Depiction" x="64" y="576" width="32" height="64" visible="0">
   <properties>
    <property name="story" value="/PrisonFloor/Cell/Bed"/>
   </properties>
  </object>
  <object id="4" name="Door" type="Depiction" x="64" y="544" width="32" height="32" visible="0">
   <properties>
    <property name="story" value="/PrisonFloor/Cell/Door"/>
   </properties>
  </object>
  <object id="6" name="cell-door" type="Object" gid="3" x="64" y="512" width="32" height="32">
   <properties>
    <property name="blocking" type="bool" value="true"/>
   </properties>
  </object>
  <object id="14" name="inmate-processing" type="Depiction" x="0" y="352" width="160" height="64">
   <properties>
    <property name="story" value="/PrisonFloor/Processing/Processing"/>
   </properties>
  </object>
  <object id="15" name="medical-station" type="Object" gid="4" x="32" y="352" width="32" height="32">
   <properties>
    <property name="story" value="/PrisonFloor/Processing/MedicalStation"/>
   </properties>
  </object>
  <object id="16" name="cabinet" type="Object" gid="5" x="128" y="352" width="32" height="32">
   <properties>
    <property name="story" value="/PrisonFloor/Processing/MedicalCabinet"/>
   </properties>
  </object>
 </objectgroup>
</map>
